!!!ONB: MCCC : IFS0593_01 : Extracted Monophonic Melody
!!!COM: Schubert, Franz
!!!OPR: Piano Sonata in A major
!!!OMV: 1
!!!SCT: D.959
!!!ODT: 1828///
**kern
*staff1
=1
*clefG2
*k[f#c#g#d#]
*E:
*M4/4
1a
=2
1a
=3
2a
4a
4a
=4
4a
4a
8a
8a
8a
8a
=5
2a
2a
=6
4a
8g#
8f#
2g#
=7
12ddd
12bb
12gg#
12dd
12b
12g#
12d
12B
12G#
4r
=8
4r
4dd
2dd
=9
12ddd
12aa
12ee#
12dd
12a
12e#
12d
12A
12E#
4r
=10
4r
4dd
2dd
=11
12ddd
12bb
12gg
12dd
12b
12g
4d
4dd
=12
12ddd
12aa
12ee#
12dd
12a
12e#
12d
12dd
12cc#
12dd
12ddd
12ccc#
=13
12ddd
12ccc#
12eee
12ddd
12ccc#
12bb
12aa
12gg#
12bb
12aa
12gg#
12ff#
=14
12ee
12dd#
12ff#
12ee
12dd
12cc#
12b
12a#
12dd
12cc#
12b
12a
=15
12g#
12a
12b
12a
12g#
12f#
12e
12f#
12e
12d
12c#
12B
=16
4A
4a
2ee[
=17
4ee]
4ff#
2dd[
=18
8dd]
8ee
4cc#
12b
12B
12b
12a#
12A#
12a#
=19
4b
8cc#
8dd
4ee
4aa
=20
2cc#
2ff#
=21
4a
8g#
8f#
2g#
=22
12cc#
12ee
12aa
12ee
12cc#
12a
12e
12c#
12A
4r
=23
4r
4ee
2ee
=24
12ee
12aa
12ccc#
12aa
12ee
12cc#
12a
12e
12c#
4r
=25
4r
4aa
2bb
=26
4aa
4r
2r
=27
12ddd#
12fff#
12aaa
12fff#
12ddd#
12aa
12ff#
12dd#
12b
12a
12f#
12d#
=28
4e
4r
4r
4ee
=29
2aa
12gg
12aa
12gg
12ee#
12gg
12ee#
=30
4ee
4r
4r
4b#
=31
2ee#
12dd#
12ee#
12dd#
12cc#
12dd#
12cc#
=32
4b#
4gg#
2gg#[
=33
4gg#]
4gg#
4gg#
4ff#
=34
4ee
4ee
2ee[
=35
4ee]
4ee
4ee
4dd
=36
4gg
4b
4ee
4gg#
=37
4aa
4dd
4b#
4b
=38
4a
4a
4a
4a#
=39
4b
4r
12r
12ff#
12gg
12aa
12gg
12ff#
=40
12gg
12ee
12dd
12b#
12b
12a
12g
12f#
12e
12d#
12f#
12e
=41
4B
4r
12r
12fff#
12ggg
12aaa
12ggg
12fff#
=42
12ggg
12eee
12ddd
12bb#
12bb
12aa
12gg
12ff#
12ee
12dd#
12ff#
12ee
=43
12b
12dd#
12b
12f#
12d#
12B
12B#
12f#
12d#
12B#
12f#
12d#
=44
12B
12f#
12d#
12B
12f#
12d#
12A#
12f#
12e
12A#
12f#
12e
=45
12B
12d#
12B
12F#
12D#
12BB
12BB#
12F#
12D#
12BB#
12F#
12D#
=46
12BB
12F#
12D#
12BB
12F#
12D#
12AA#
12F#
12E
12AA#
12F#
12E
=47
12BB
12F#
12D#
12BB
12F#
12D#
12AA#
12F#
12E
12AA#
12G
12E
=48
12BB
12F#
12E
12BB
12F#
12D#
12AA#
12F#
12E
12AA#
12G
12E
=49
12F#
12BB
12AA#
12BB
12D#
12C##
12D#
12F#
12E#
12F#
12B
12A#
=50
12B
12d#
12c##
12d#
12f#
12e#
12f#
12b
12a#
12b
12dd#
12cc##
=51
8dd#
8ee
8ff#
8ee
8dd#
8cc#
8b
8a#
=52
8b
8cc#
8dd
8ff#
8ff#
8ff#
8ff#
8ff#
=53
4ff#
4r
2r
=54
4r
8r
8b
8b
8b
8b
8b
=55
2b
8ee
8dd#
8cc#
8b
=56
4b
4b
4b
4b
=57
4b
4g#
4cc#
4r
=58
4b
4g#
2f#[
=59
2f#]
8r
8ff#
8gg#
8aa
=60
2bb
8eee
8ddd#
8ccc#
8bb
=61
4bb
4bb
4bb
4bb
=62
4bb
4gg
2bb#
=63
4bb
4gg
2aa[
=64
2aa]
2r
=65
2g
8a
8g
8a
8g
=66
4f#
4dd
4dd
4dd
=67
4g
8f#
8g
8b#
8b
8a
8g
=68
4f#
4dd
4dd
4dd
=69
2dd
8cc#
8dd
8gg
8ff#
=70
4ee
4dd#
4dd#
4dd#
=71
2ee
4dd#
4cc#
=72
8b
8B
8e
8g#
8f#
8a
8d#
8b
=73
8B
8BB
8E
8G#
8C#
8A
8D#
8B
=74
12b
12a#
12b
12b#
12cc#
12dd
12cc#
12dd#
12ee
12ee#
12ff#
12gg
=75
12gg#
12ff#
12ee
12dd#
12ee
12cc#
12b#
12cc#
12a
12g#
12a
12f#
=76
12e#
12f#
12d#
12c##
12d#
12B
12A#
12B
12A#
12B
12c#
12B
=77
12A#
12B
12A#
12B
12c#
12B
12c#
12B
12c#
12B
12c#
12B
=78
2B
8e
8d#
8c#
8B
=79
4B
4B
4B
4B
=80
2B
4B
4B
=81
2B
4B
4B
=82
4B
4r
4AA
4AA
=83
12AA#
12BB
12BB#
12C#
12D
12D#
2E
=84
12BB
12AA#
12BB
12BB#
12D
12BB#
12E#
12D##
12E#
12F##
12G#
12E#
=85
4B#
4r
4e#
4e#
=86
12f#
12g
12g#
12a
12a#
12b
2b#
=87
12g
12f#
12g
12g#
12a#
12g#
12cc#
12b#
12cc#
12dd#
12ee
12cc#
=88
4b#
4r
4C#
4C#
=89
12D
12D#
12E
12E#
12F#
12G
2G#
=90
12D#
12C##
12D#
12E
12F#
12E
12A
12G#
12A
12B
12B#
12A
=91
4G#
4r
4A
4A
=92
12a
12a#
12b
12b#
12cc#
12dd
4dd#
4dd#
=93
12dd#
12ee
12ee#
12ff#
12gg
12gg#
4aa
4aa
=94
12aa
12aa#
12bb
12bb#
12ccc#
12ddd
4ddd#
4ddd#
=95
12eee
12bb
12gg
12ee
12b
12g
12e
12d#
12e
12f#
12g
12f#
=96
12e
12f#
12e
12f#
12g
12f#
12e
12f#
12e
12d#
12e
12d#
=97
12eee
12bb
12gg#
12ee
12b
12g#
12e
12d#
12e
12f#
12g#
12f#
=98
12e
12f#
12e
12f#
12g#
12f#
12e
12f#
12e
12d#
12e
12d#
=99
12eee
12bb
12gg#
12ee
12b
12g#
12ccc#
12aa
12ee
12cc#
12a
12e
=100
12bb
12gg#
12ee
12b
12g#
12e
12bb
12ff#
12dd#
12b
12f#
12d#
=101
2r
4b
4b
=102
4b
4b
4b
4b
=103
4b#
4r
4gg
4gg
=104
4gg
4gg
4gg
4gg
=105
12gg
12ee
12cc#
12g
12e
12c#
8eee
8ee
8gg
8g
=106
12gg
12ee
12b
12g
12e
12B
8eee
8ee
8gg
8g
=107
12gg
12ee
12a
12a
12g
12e
8eee
8ee
8aa
8a
=108
8eee
8ee
8aa
8a
8eee
8ee
8aa
8a
=109
8fff#
8ff#
8aa
8a
8ddd#
8dd#
8bb
8b
=110
8eee
8ee
8bb
8b
8bb#
8b#
8aa
8a
=111
8bb
8b
8gg
8g
8bb
8b
8b
8B
=112
1r
=113
4r
8r
8bb
8aa
8gg#
8ff#
8ee
=114
8dd#
8ee
8ff#
8ee
8dd#
8cc#
8b
8a#
=115
8b
8b#
8cc#
8b
8a
8g#
8f#
8e
=116
4r
4b
4b
4b
=117
2b
8ee
8dd#
8cc#
8b
=118
4b
4b
4b
4b
=119
4b
4g#
2cc#
=120
4b
4e
2f#
=121
4bb
16aa
16gg#
16ff#
16ee
2ccc#
=122
4bb
16aa
16gg#
16ff#
16ee
2ff#
=123
4ee
4r
2r
=124
4b
4b
4bb
4bb
=125
4bb
4r
2r
=126
4B
4B
4b
4b
=127
2b
4b
4b
=128
2b
4b
4b
=129
2b
2c#
=130
2d
2e
=131
1e#
=132
4e
4r
2r
=133
1a
=134
1a
=135
2a
4a
4a
=136
4a
4a
8a
8a
8a
8a
=137
2a
2a
=138
4a
8g#
8f#
2g#
=139
12ddd
12bb
12gg#
12dd
12b
12g#
12d
12B
12G#
4r
=140
4r
4dd
2dd
=141
12ddd
12aa
12ee#
12dd
12a
12e#
12d
12A
12E#
4r
=142
4r
4dd
2dd
=143
12ddd
12bb
12gg
12dd
12b
12g
4d
4dd
=144
12ddd
12aa
12ee#
12dd
12a
12e#
12d
12dd
12cc#
12dd
12ddd
12ccc#
=145
12ddd
12ccc#
12eee
12ddd
12ccc#
12bb
12aa
12gg#
12bb
12aa
12gg#
12ff#
=146
12ee
12dd#
12ff#
12ee
12dd
12cc#
12b
12a#
12dd
12cc#
12b
12a
=147
12g#
12a
12b
12a
12g#
12f#
12e
12f#
12e
12d
12c#
12B
=148
4A
4a
2ee[
=149
4ee]
4ff#
2dd[
=150
8dd]
8ee
4cc#
12b
12B
12b
12a#
12A#
12a#
=151
4b
8cc#
8dd
4ee
4aa
=152
2cc#
2ff#
=153
4a
8g#
8f#
2g#
=154
12cc#
12ee
12aa
12ee
12cc#
12a
12e
12c#
12A
4r
=155
4r
4ee
2ee
=156
12ee
12aa
12ccc#
12aa
12ee
12cc#
12a
12e
12c#
4r
=157
4r
4aa
2bb
=158
4aa
4r
2r
=159
12ddd#
12fff#
12aaa
12fff#
12ddd#
12aa
12ff#
12dd#
12b
12a
12f#
12d#
=160
4e
4r
4r
4ee
=161
2aa
12gg
12aa
12gg
12ee#
12gg
12ee#
=162
4ee
4r
4r
4b#
=163
2ee#
12dd#
12ee#
12dd#
12cc#
12dd#
12cc#
=164
4b#
4gg#
2gg#[
=165
4gg#]
4gg#
4gg#
4ff#
=166
4ee
4ee
2ee[
=167
4ee]
4ee
4ee
4dd
=168
4gg
4b
4ee
4gg#
=169
4aa
4dd
4b#
4b
=170
4a
4a
4a
4a#
=171
4b
4r
12r
12ff#
12gg
12aa
12gg
12ff#
=172
12gg
12ee
12dd
12b#
12b
12a
12g
12f#
12e
12d#
12f#
12e
=173
4B
4r
12r
12fff#
12ggg
12aaa
12ggg
12fff#
=174
12ggg
12eee
12ddd
12bb#
12bb
12aa
12gg
12ff#
12ee
12dd#
12ff#
12ee
=175
12b
12dd#
12b
12f#
12d#
12B
12B#
12f#
12d#
12B#
12f#
12d#
=176
12B
12f#
12d#
12B
12f#
12d#
12A#
12f#
12e
12A#
12f#
12e
=177
12B
12d#
12B
12F#
12D#
12BB
12BB#
12F#
12D#
12BB#
12F#
12D#
=178
12BB
12F#
12D#
12BB
12F#
12D#
12AA#
12F#
12E
12AA#
12F#
12E
=179
12BB
12F#
12D#
12BB
12F#
12D#
12AA#
12F#
12E
12AA#
12G
12E
=180
12BB
12F#
12E
12BB
12F#
12D#
12AA#
12F#
12E
12AA#
12G
12E
=181
12F#
12BB
12AA#
12BB
12D#
12C##
12D#
12F#
12E#
12F#
12B
12A#
=182
12B
12d#
12c##
12d#
12f#
12e#
12f#
12b
12a#
12b
12dd#
12cc##
=183
8dd#
8ee
8ff#
8ee
8dd#
8cc#
8b
8a#
=184
8b
8cc#
8dd
8ff#
8ff#
8ff#
8ff#
8ff#
=185
4ff#
4r
2r
=186
4r
8r
8b
8b
8b
8b
8b
=187
2b
8ee
8dd#
8cc#
8b
=188
4b
4b
4b
4b
=189
4b
4g#
4cc#
4r
=190
4b
4g#
2f#[
=191
2f#]
8r
8ff#
8gg#
8aa
=192
2bb
8eee
8ddd#
8ccc#
8bb
=193
4bb
4bb
4bb
4bb
=194
4bb
4gg
2bb#
=195
4bb
4gg
2aa[
=196
2aa]
2r
=197
2g
8a
8g
8a
8g
=198
4f#
4dd
4dd
4dd
=199
4g
8f#
8g
8b#
8b
8a
8g
=200
4f#
4dd
4dd
4dd
=201
2dd
8cc#
8dd
8gg
8ff#
=202
4ee
4dd#
4dd#
4dd#
=203
2ee
4dd#
4cc#
=204
8b
8B
8e
8g#
8f#
8a
8d#
8b
=205
8B
8BB
8E
8G#
8C#
8A
8D#
8B
=206
12b
12a#
12b
12b#
12cc#
12dd
12cc#
12dd#
12ee
12ee#
12ff#
12gg
=207
12gg#
12ff#
12ee
12dd#
12ee
12cc#
12b#
12cc#
12a
12g#
12a
12f#
=208
12e#
12f#
12d#
12c##
12d#
12B
12A#
12B
12A#
12B
12c#
12B
=209
12A#
12B
12A#
12B
12c#
12B
12c#
12B
12c#
12B
12c#
12B
=210
2B
8e
8d#
8c#
8B
=211
4B
4B
4B
4B
=212
2B
4B
4B
=213
2B
4B
4B
=214
4B
4r
4AA
4AA
=215
12AA#
12BB
12BB#
12C#
12D
12D#
2E
=216
12BB
12AA#
12BB
12BB#
12D
12BB#
12E#
12D##
12E#
12F##
12G#
12E#
=217
4B#
4r
4e#
4e#
=218
12f#
12g
12g#
12a
12a#
12b
2b#
=219
12g
12f#
12g
12g#
12a#
12g#
12cc#
12b#
12cc#
12dd#
12ee
12cc#
=220
4b#
4r
4C#
4C#
=221
12D
12D#
12E
12E#
12F#
12G
2G#
=222
12D#
12C##
12D#
12E
12F#
12E
12A
12G#
12A
12B
12B#
12A
=223
4G#
4r
4A
4A
=224
12a
12a#
12b
12b#
12cc#
12dd
4dd#
4dd#
=225
12dd#
12ee
12ee#
12ff#
12gg
12gg#
4aa
4aa
=226
12aa
12aa#
12bb
12bb#
12ccc#
12ddd
4ddd#
4ddd#
=227
12eee
12bb
12gg
12ee
12b
12g
12e
12d#
12e
12f#
12g
12f#
=228
12e
12f#
12e
12f#
12g
12f#
12e
12f#
12e
12d#
12e
12d#
=229
12eee
12bb
12gg#
12ee
12b
12g#
12e
12d#
12e
12f#
12g#
12f#
=230
12e
12f#
12e
12f#
12g#
12f#
12e
12f#
12e
12d#
12e
12d#
=231
12eee
12bb
12gg#
12ee
12b
12g#
12ccc#
12aa
12ee
12cc#
12a
12e
=232
12bb
12gg#
12ee
12b
12g#
12e
12bb
12ff#
12dd#
12b
12f#
12d#
=233
2r
4b
4b
=234
4b
4b
4b
4b
=235
4b#
4r
4gg
4gg
=236
4gg
4gg
4gg
4gg
=237
12gg
12ee
12cc#
12g
12e
12c#
8eee
8ee
8gg
8g
=238
12gg
12ee
12b
12g
12e
12B
8eee
8ee
8gg
8g
=239
12gg
12ee
12a
12a
12g
12e
8eee
8ee
8aa
8a
=240
8eee
8ee
8aa
8a
8eee
8ee
8aa
8a
=241
8fff#
8ff#
8aa
8a
8ddd#
8dd#
8bb
8b
=242
8eee
8ee
8bb
8b
8bb#
8b#
8aa
8a
=243
8bb
8b
8gg
8g
8bb
8b
8b
8B
=244
1r
=245
4r
8r
8bb
8aa
8gg#
8ff#
8ee
=246
8dd#
8ee
8ff#
8ee
8dd#
8cc#
8b
8a#
=247
8b
8b#
8cc#
8b
8a
8g#
8f#
8e
=248
4r
4b
4b
4b
=249
2b
8ee
8dd#
8cc#
8b
=250
4b
4b
4b
4b
=251
4b
4g#
2cc#
=252
4b
4e
2f#
=253
4bb
16aa
16gg#
16ff#
16ee
2ccc#
=254
4bb
16aa
16gg#
16ff#
16ee
2ff#
=255
4ee
4r
2r
=256
4b
4b
4bb
4bb
=257
4bb
4r
2r
=258
4B
4B
4b
4b
=259
2b
4b
4b
=260
2b
4b
4b
=261
2b
4b
4b
=262
2b#
2r
=263
4gg
16ee#
16ee
16dd
16b#
2aa
=264
4gg
16ee#
16ee
16dd
16b#
2dd
=265
4ee
16dd
16b#
16b
16dd
4b#
16dd
16b#
16b
16dd
=266
4b#
16ee
16ff#
16gg
16ff#
4ee
4ff#
=267
2ff#
2r
=268
4ff#
16ee
16dd#
16cc#
16b
2gg#
=269
4ff#
16ee
16dd#
16cc#
16b
2cc#
=270
4dd#
16ee
16ff#
16gg
16ee
4dd#
16ee
16ff#
16gg
16ee
=271
4dd#
16aa
16bb
16bb#
16bb
4gg
4gg
=272
2gg
2r
=273
4ggg
16eee#
16eee
16ddd
16bb#
16aaa
16ggg
16eee#
16eee
16ddd
16bb#
16bb
16aa
=274
4gg
16ee#
16ee
16dd
16b#
16dd
16ee
16ee#
16gg
16aa
16bb
16bb#
16ddd
=275
4bb#
16ddd
16bb#
16bb
16ddd
4bb#
16ddd
16bb#
16bb
16ddd
=276
4bb#
16eee
16fff#
16ggg
16fff#
4eee
4fff#
=277
2fff#
2r
=278
4fff#
16eee
16ddd#
16ccc#
16bb
16ggg#
16fff#
16eee
16ddd#
16ccc#
16bb
16aa#
16gg#
=279
4ff#
16ee
16dd#
16cc#
16b
16cc#
16dd#
16ee
16ff#
16gg#
16aa#
16bb
16ccc#
=280
4ddd#
16eee
16fff#
16ggg
16eee
4ddd#
16eee
16fff#
16ggg
16eee
=281
4ddd#
16aaa
16bbb
16bbb#
16bbb
4ggg
4ggg
=282
8ggg
8gg
8gg
8gg
8gg
8gg
8gg
8gg
=283
8gg
8gg
8gg
8gg
8gg#
8gg#
8gg#
8gg#
=284
8aa
8aa
8aa
8aa
8bb
8bb
8bb
8bb
=285
8bb
8bb
8bb
8bb
8bb
8bb
8bb
8bb
=286
8bb
8bb
8ccc#
8ccc#
8ddd
8ddd
8eee
8eee
=287
8ddd
8ff#
8ff#
8ff#
8ff#
8ff#
8ff#
8ff#
=288
8ff#
8ff#
8ff#
8ff#
8ff#
8ff#
8ff#
8ff#
=289
8gg
8gg
8gg
8gg
8aa
8aa
8aa
8aa
=290
8aa
8aa
8aa
8aa
8aa
8aa
8aa
8aa
=291
8gg
8gg
8bb
8bb
8bb#
8bb#
8bb#
8bb#
=292
2bb#
2r
=293
4gg
16ee#
16dd#
16cc##
16b#
2gg#
=294
4ff##
16ee#
16dd#
16cc##
16b#
2bb
=295
4dd#
16ee
16ee#
16gg
16ee
4ee#
16ff##
16gg#
16aa#
16gg
=296
4.ccc#
8bb#
8aa#
8gg#
8ff##
8ee#
=297
8.ee#
16dd#
16ee#
16dd#
16ee#
16dd#
8.dd#
16cc##
16dd#
16cc##
16dd#
16dd
=298
4ddd#
8ccc##
8bb#
8aa#
8gg#
8ff##
8ee#
=299
8.ee#
16dd#
16ee#
16dd#
16ee#
16dd#
8.dd#
16cc##
16dd#
16cc##
16dd#
16dd
=300
1bb
=301
1bb#
=302
2bb#
4bb
4aa
=303
4gg#
4ee#
4dd##
4ee#
=304
8.ee
32r
32gg
4ee#
4ee
4ee
=305
4ee
16dd
16b#
16b
16a
2ee#
=306
4ee
16dd
16b#
16b
16a
2gg#
=307
4aa
16cc#
16dd
16ee
16cc#
4dd
16ee
16ee#
16gg
16ee
=308
4.aa#
8aa
8gg
8ee#
8ee
8dd
=309
8.dd
16b#
16dd
16b#
16dd
16b#
8.b#
16a##
16b#
16a##
16b#
16b
=310
4bb#
8bb
8aa
8gg
8ee#
8ee
8dd
=311
8.dd
16b#
16dd
16b#
16dd
16b#
8.dd
16b#
16dd
16b#
16dd
16b#
=312
4b
4ee
8.E#
16D##
16E#
16D##
16E#
16D##
=313
16E#
16D##
16E#
16E
16D
16BB#
16D
16BB#
16BB
16AA
16BB
16AA
16GG#
16AA
16GG#
16AA
=314
4EE
4ee
8.eee#
16ddd##
16eee#
16ddd##
16eee#
16eee
=315
16aaa
16eee
16aaa
16eee
16ddd
16bb#
16ddd
16bb#
16bb
16aa
16bb
16aa
16gg#
16aa
16gg#
16aa
=316
4ee
4E
4ee#
4D#
=317
4ee
4E
4ee#
4D#
=318
4ee
4E
8gg#
8e
8bb
8g#
=319
4eee
4E
8gg#
8e
8bb
8g#
=320
4eee
4E
8bbb
8gg#
8dddd#
8bb
=321
4eeee
4E
8bbb
8gg#
8dddd#
8bb
=322
4eeee
4E
8eee
8ee
8ddd
8dd
=323
8bb
8b
8aa
8a
8gg#
8g#
8ff#
8f#
=324
4ee
4E
8eee#
8ee#
8ddd
8dd
=325
8bb
8b
8aa
8a
8gg#
8g#
8ff#
8f#
=326
4ee
4E
8gg#
8g#
8ff#
8f#
=327
4ee
4E
8gg#
8g#
8ff#
8f#
=328
8ee
8e
8dd
8d
8b
8B
8g#
8G#
=329
8e
8E
8f#
8F#
8g
8G
8g#
8G#
=330
1a
=331
1a
=332
2a
4a
4a
=333
4a
4a
8a
8a
8a
8a
=334
2a
2a
=335
4a
8g#
8f#
2g#
=336
12ddd
12bb
12gg#
12dd
12b
12g#
12d
12B
12G#
4r
=337
4r
4dd
2dd
=338
12ddd
12aa
12ee#
12dd
12a
12e#
12d
12A
12E#
4r
=339
4r
4dd
2dd
=340
12ddd
12bb
12gg
12dd
12b
12g
4d
4dd
=341
12ddd
12aa
12ee#
12dd
12a
12e#
12d
12dd
12cc#
12dd
12ddd
12ccc#
=342
12ddd
12ccc#
12eee
12ddd
12ccc#
12bb
12aa
12gg#
12bb
12aa
12gg#
12ff#
=343
12ee
12dd#
12ff#
12ee
12dd
12cc#
12b
12a#
12dd
12cc#
12b
12a
=344
12g#
12a
12b
12a
12g#
12f#
12e
12f#
12e
12d
12c#
12B
=345
4A
4a
2ee[
=346
4ee]
4ff#
2dd[
=347
8dd]
8ee
4cc#
12b
12B
12b
12a#
12A#
12a#
=348
4b
8cc#
8dd
4ee
4aa
=349
2cc#
2ff#
=350
4a
8g#
8f#
2g#
=351
4b#
4aa
2eee[
=352
4eee]
4eee#
2ddd[
=353
8ddd]
8eee
4bb#
12aa#
12a#
12aa#
12aa
12a
12aa
=354
4aa#
8bb#
8ddd
4bb#
4eee#
=355
2aa
2ddd
=356
4ee#
8ee
8dd
2ee
=357
12aa
12b#
12ee#
12b#
12a
12e#
12B#
12A
12E#
4r
=358
4r
4b#
2b#
=359
12b#
12ee#
12aa
12ee#
12b#
12a
12e#
12B#
12A
4E#
=360
4r
4ee#
2gg
=361
4ee#
4r
2r
=362
12ee#
12aa
12bb#
12aa
12ee#
12b#
12ee#
12b#
12a
12e#
12B#
12A
=363
4E#
4r
4r
4ee#
=364
2aa#
12gg#
12aa#
12gg#
12ff#
12gg#
12ff#
=365
4ee#
4r
4r
4cc#
=366
2ff#
12ee
12ff#
12ee
12dd
12ee
12dd
=367
4cc#
4aa
2aa[
=368
4aa]
4aa
4aa
4gg
=369
4bb#
4ee
4aa
4ccc#
=370
4ddd
4gg
4ee#
4ee
=371
4dd
4dd
4dd
4dd#
=372
4ee
4r
12r
12bb
12bb#
12ddd
12bb#
12aa##
=373
12bb#
12aa
12gg
12ee#
12ee
12dd
12b#
12b
12a
12g#
12b
12a
=374
4e
4r
12r
12bbb
12bbb#
12dddd
12bbb#
12aaa##
=375
12bbb#
12aaa
12ggg
12eee#
12eee
12ddd
12bb#
12bb
12aa
12gg#
12bb
12aa
=376
12ee
12gg#
12ee
12b
12g#
12e
12e#
12b
12g#
12e#
12b
12g#
=377
12e
12b
12g#
12e
12b
12g#
12d#
12b
12a
12d#
12b
12a
=378
12e
12g#
12e
12B
12G#
12E
12E#
12B
12G#
12E#
12B
12G#
=379
12E
12B
12G#
12E
12B
12G#
12D#
12B
12A
12D#
12B
12A
=380
12E
12B
12G#
12E
12B
12G#
12D#
12B
12A
12D#
12B#
12A
=381
12E
12B
12G#
12E
12B
12G#
12D#
12B
12A
12D#
12B#
12A
=382
12G#
12E
12D#
12E
12G#
12F##
12G#
12B
12A#
12B
12e
12d#
=383
12e
12g#
12f##
12g#
12b
12a#
12b
12ee
12dd#
12ee
12gg#
12ff##
=384
8gg#
8aa
8bb
8aa
8gg#
8ff#
8ee
8dd#
=385
8ee
8ff#
8gg#
8bb
8bb
8bb
8bb
8bb
=386
4bb
4r
2r
=387
4r
8r
8ee
8ee
8ee
8ee
8ee
=388
2ee
8aa
8gg#
8ff#
8ee
=389
4ee
4ee
4ee
4ee
=390
4ee
4cc#
2ff#
=391
4ee
4cc#
2b[
=392
2b]
8r
8bb
8ccc#
8ddd
=393
2eee
8aaa
8ggg#
8fff#
8eee
=394
4eee
4eee
4eee
4eee
=395
4eee
4bb#
2eee#
=396
4eee
4bb#
2ddd[
=397
2ddd]
2r
=398
2b#
8dd
8b#
8dd
8b#
=399
4b
4gg
4gg
4gg
=400
4b#
8a##
8b#
8ee#
8ee
8dd
8b#
=401
4b
4gg
4gg
4gg
=402
2gg
8ff#
8gg
8bb#
8bb
=403
4aa
4gg#
4gg#
4gg#
=404
2aa
4gg#
4ff#
=405
8ee
8e
8a
8cc#
8b
8dd
8g#
8ee
=406
8e
8E
8A
8c#
8F#
8d
8G#
8e
=407
12ee
12dd#
12ee
12ee#
12ff#
12gg
12ff#
12gg#
12aa
12aa#
12bb
12bb#
=408
12ccc#
12bb
12aa
12gg#
12aa
12ff#
12ee#
12ff#
12dd
12cc#
12dd
12b
=409
12a#
12b
12g#
12f##
12g#
12e
12d#
12e
12d#
12e
12f#
12e
=410
12d#
12e
12d#
12e
12f#
12e
12f#
12e
12f#
12e
12f#
12e
=411
2e
8a
8g#
8f#
8e
=412
4e
4e
4e
4e
=413
2e
4e
4e
=414
2e
4e
4e
=415
4e
4r
4D
4D
=416
12D#
12E
12E#
12F#
12G
12G#
2A
=417
12E
12D#
12E
12E#
12G
12E#
12A#
12G##
12A#
12B#
12d
12A#
=418
4e#
4r
4a#
4a#
=419
12b
12b#
12cc#
12dd
12dd#
12ee
2ee#
=420
12b#
12a##
12b#
12cc#
12dd#
12cc#
12ff#
12ee#
12ff#
12gg#
12aa
12ff#
=421
4ee
4r
4F#
4F#
=422
12G
12G#
12A
12A#
12B
12B#
2c#
=423
12G#
12F##
12G#
12A
12B
12A
12d
12c#
12d
12e
12f#
12e
=424
4c#
4r
4d
4d
=425
12dd
12dd#
12ee
12ee#
12ff#
12gg
4gg#
4gg#
=426
12gg#
12aa
12aa#
12bb
12bb#
12ccc#
4ddd
4ddd
=427
12ddd
12ddd#
12eee
12eee#
12fff#
12ggg
4ggg#
4ggg#
=428
12aaa
12eee
12bb#
12aa
12ee
12b#
12a
12g#
12a
12b
12b#
12b
=429
12a
12b
12a
12b
12b#
12b
12a
12b
12a
12g#
12a
12g#
=430
12aaa
12eee
12ccc#
12aa
12ee
12cc#
12a
12g#
12a
12b
12cc#
12b
=431
12a
12b
12a
12b
12cc#
12b
12a
12b
12a
12g#
12a
12g#
=432
12aaa
12eee
12ccc#
12aa
12ee
12cc#
12fff#
12ddd
12aa
12ff#
12dd
12a
=433
12eee
12ccc#
12aa
12ee
12cc#
12a
12eee
12bb
12gg#
12ee
12b
12g#
=434
12a
12e
12B#
4r
4ee
4ee
=435
4ee
4ee
4ee
4ee
=436
4ee#
4r
4bb#
4bb#
=437
4bb#
4bb#
4bb#
4bb#
=438
12bb#
12aa
12ff#
12b#
12a
12f#
8aaa
8aa
8bb#
8a
=439
12bb#
12aa
12ee
12b#
12a
12e
8aaa
8aa
8bb#
8a
=440
12bb#
12aa
12dd
12dd
12b#
12a
8aaa
8aa
8ddd
8dd
=441
8aaa
8aa
8ddd
8dd
8aaa
8aa
8ddd
8dd
=442
8bbb
8bb
8ddd
8dd
8ggg#
8gg#
8eee
8ee
=443
8aaa
8aa
8eee
8ee
8eee#
8ee#
8ddd
8dd
=444
8eee
8ee
8bb#
8b#
8eee
8ee
8ee
8e
=445
1r
=446
4r
8r
8eee
8ddd
8ccc#
8bb
8aa
=447
8gg#
8aa
8bb
8aa
8gg#
8ff#
8ee
8dd#
=448
8ee
8ee#
8ff#
8ee
8dd
8cc#
8b
8a
=449
4r
4ee
4ee
4ee
=450
2ee
8aa
8gg#
8ff#
8ee
=451
4ee
4ee
4ee
4ee
=452
4ee
4cc#
2ff#
=453
4ee
4a
2b
=454
4eee
16ddd
16ccc#
16bb
16aa
2fff#
=455
4eee
16ddd
16ccc#
16bb
16aa
2bb
=456
4aa
4r
2r
=457
4ee
4ee
4eee
4eee
=458
4eee
4r
2r
=459
4e
4e
4ee
4ee
=460
2ee
4ee
4ee
=461
2ee
4ee
4ee
=462
1r
=463
1aa
=464
1aa
=465
2aa
2aa
=466
4dd
8cc#
8b
2cc#
=467
1ff#
=468
2.ff#
4gg
=469
4gg
4ff#
4ee
4dd
=470
1cc#
=471
4a
8g#
8f#
2g#
=472
1a
=473
1a
=474
2a
4a
4b
=475
2.b#
8dd
8a#
=476
1a
=477
2.a
4g#
=478
4g#
4f#
4e
4d
=479
1c#
=480
4A
8G#
8F#
2G#
=481
4A
4r
12A
12c#
12e
12a
12cc#
12ee
=482
*M5/4
4aa
4aaa
4r
2r
=483
*M4/4
2r
12A#
12d
12e#
12a#
12dd
12ee#
=484
*M5/4
4aa#
4dddd
4r
2r
=485
*M4/4
2r
12A
12c#
12e
12a
12cc#
12ee
=486
12aa
12ccc#
12eee
12ccc#
12aa
12ee
12aa
12ee
12cc#
12a
12e
12c#
=487
1r
=488
2r
4a
4r
=489
1a
==
*-
